X:1
T:Title
%%score { ( 1 3 ) | 2 }
L:1/8
M:4/4
K:C
V:1 treble nm="Grand Piano"
V:3 treble 
V:2 bass 
V:1
 z4 z2[Q:1/4=100] [CE][DF] | [EG][EG][EG][EG] [FA][EG][EG][EG] | [Ec]2 [FA]2 [EG]2 [CE][DF] | %3
 [EG] [EG]3 [FA]2 [EG]2 | [B,D]6 [CE][DF] | [EG][EG][EG][EG] [FA][EG][EG][EG] | %6
 AccA [EG]2 [CE][DF] | [EG] [Ec]3 [Ec]2 B-[FB] |[M:3/4] [Ec]4 z2 |[M:1/4] Gc |[M:4/4] z d3- d2 z2 | %11
 z c3- c2 z2 | AAA[GB] [Ac]AcA | [EG]6 z2 | z d3- d2 z2 | z c3- c2 z2 | z4 z2 B2 |[M:3/4] [Ec]6 |] %18
V:2
 z4 z2 [C,G,][C,G,] | [C,C][C,C][C,C][C,C] [C,C][C,C][C,C][C,C] | %2
 [C,G,]2 [C,C]2 [C,C]2 [C,G,][C,G,] | [C,C] [C,C]3 [C,C]2 [C,C]2 | [G,,G,]6 [C,G,][C,G,] | %5
 [C,C][C,C][C,C][C,C] [C,C][C,C][C,C][C,C] | [F,CF][F,A,F][F,A,F][F,CF] [C,C]2 [C,G,][C,G,] | %7
 [C,G,] [C,G,]3 [C,G,]2 [G,,G,]2 |[M:3/4] [C,G,]4 z2 |[M:1/4] z2 | %10
[M:4/4] z2 [G,B,][G,B,] [G,B,][G,B,] z2 | z2 [C,G,][C,G,] [C,G,][C,G,][C,C][C,C] | %12
 [F,CF][F,CF][F,CF][F,C] [F,C][F,CF][F,A,F][F,CF] | [C,C]2 C,C, C,2 z2 | %14
 z2 [G,B,][G,B,] [G,B,][G,B,] z2 | z2 [C,G,][C,G,] [C,G,][C,G,][C,C][C,C] | %16
 [F,CF]2 [F,A,F]2 [G,E]2 [G,,G,]2 |[M:3/4] [C,G,]6 |] %18
V:3
 x8 | x8 | x8 | x8 | x8 | x8 | x8 | z4 z2 .D2 |[M:3/4] x6 |[M:1/4] x2 |[M:4/4] .B2 FF FFcd | %11
 .e2 EE EE[EG][EG] | x8 | z2 CC C2 Gc | .B2 FF FFcd | .e2 EE EE[EG][EG] | A2 c2 c2 DF | %17
[M:3/4] x6 |] %18

